www/assets/icons/workspace_premium.svg

<svg xmlns="http://www.w3.org/2000/svg" width="24" height="24" viewBox="0 0 24 24" fill='currentColor'><path d="M9.68 13.19 12 11.43l2.31 1.76-.88-2.85 2.32-1.84h-2.84L12 5.69l-.91 2.81H8.25l2.31 1.84zM20 9.5c0-4.42-3.58-8-8-8s-8 3.58-8 8c0 2.03.76 3.87 2 5.28v7.72l6-2 6 2v-7.72a7.96 7.96 0 0 0 2-5.28m-8-6c3.31 0 6 2.69 6 6s-2.69 6-6 6-6-2.69-6-6 2.69-6 6-6"/></svg>

<svg width="24" height="24" viewBox="0 0 24 24" xmlns="http://www.w3.org/2000/svg" fill='currentColor'><path d="M9.68 13.19L12 11.43L14.31 13.19L13.43 10.34L15.75 8.5H12.91L12 5.69L11.09 8.5H8.25L10.56 10.34L9.68 13.19ZM20 9.5C20 5.08 16.42 1.5 12 1.5C7.58 1.5 4 5.08 4 9.5C4 11.53 4.76 13.37 6 14.78V22.5L12 20.5L18 22.5V14.78C19.24 13.37 20 11.53 20 9.5ZM12 3.5C15.31 3.5 18 6.19 18 9.5C18 12.81 15.31 15.5 12 15.5C8.69 15.5 6 12.81 6 9.5C6 6.19 8.69 3.5 12 3.5Z"/></svg>
